FRONT/src/assets/wave.svg

<svg id="eyx6YEMF43d1" xmlns="http://www.w3.org/2000/svg" xmlns:xlink="http://www.w3.org/1999/xlink" viewBox="0 0 640 320" shape-rendering="geometricPrecision" text-rendering="geometricPrecision"><path d="M0,128l60-21.3C120,85,240,43,360,48s240,59,360,96s240,59,360,64s240-5,300-10.7l60-5.3v128h-60c-60,0-180,0-300,0s-240,0-360,0-240,0-360,0-240,0-300,0h-60v-192Z" transform="matrix(.444136 0 0 1 0 0)" fill="#010f29"/></svg>

<?xml version="1.0" standalone="no"?><svg xmlns="http://www.w3.org/2000/svg" viewBox="0 0 1440 320"><path fill="#010f29" fill-opacity="1" d="M0,128L60,106.7C120,85,240,43,360,48C480,53,600,107,720,144C840,181,960,203,1080,208C1200,213,1320,203,1380,197.3L1440,192L1440,320L1380,320C1320,320,1200,320,1080,320C960,320,840,320,720,320C600,320,480,320,360,320C240,320,120,320,60,320L0,320Z"></path></svg>
